icons/assets/Group 313.svg

<svg width="76" height="76" viewBox="0 0 76 76" fill="none" xmlns="http://www.w3.org/2000/svg">
<g clip-path="url(#clip0_662_7141)">
<path d="M45.75 0.15559L76.0609 0.155588L60.9054 26.4056L45.75 0.15559Z" fill="#A8EFCF" fill-opacity="0.5"/>
<path fill-rule="evenodd" clip-rule="evenodd" d="M59.7383 14.0147C59.7383 12.3507 61.0888 11.0002 62.7528 11.0002C64.4168 11.0002 65.7673 12.3507 65.7673 14.0147C65.7673 15.6787 64.4168 17.0292 62.7528 17.0292C61.0888 17.0292 59.7383 15.6787 59.7383 14.0147Z" fill="#0A3B70"/>
<path fill-rule="evenodd" clip-rule="evenodd" d="M47.6815 30.5945C47.2956 30.5945 46.9097 30.4468 46.6158 30.1529C46.0265 29.5636 46.0265 28.611 46.6158 28.0216L59.557 15.0804C60.1464 14.4911 61.099 14.4911 61.6883 15.0804C62.2776 15.6698 62.2776 16.6223 61.6883 17.2117L48.7471 30.1529C48.4532 30.4468 48.0673 30.5945 47.6815 30.5945Z" fill="#0A3B70"/>
<path fill-rule="evenodd" clip-rule="evenodd" d="M22.6825 17.9124C21.5053 16.7353 19.5971 16.7353 18.42 17.9124C17.2428 19.0881 17.2428 20.9977 18.42 22.1749C19.5971 23.3521 21.5053 23.3521 22.6825 22.1749C23.8596 20.9977 23.8596 19.0881 22.6825 17.9124Z" fill="#0A3B70"/>
<path fill-rule="evenodd" clip-rule="evenodd" d="M29.5937 30.5946C29.2078 30.5946 28.822 30.4469 28.5281 30.153L21.6158 23.2407C21.0265 22.6514 21.0265 21.6988 21.6158 21.1095C22.2052 20.5201 23.1577 20.5201 23.7471 21.1095L30.6593 28.0217C31.2486 28.611 31.2486 29.5636 30.6593 30.153C30.3654 30.4469 29.9795 30.5946 29.5937 30.5946Z" fill="#0A3B70"/>
<path fill-rule="evenodd" clip-rule="evenodd" d="M54.5938 58.3495C55.771 59.5266 57.6791 59.5266 58.8563 58.3495C60.0335 57.1723 60.0335 55.2626 58.8563 54.087C57.6791 52.9098 55.771 52.9098 54.5938 54.087C53.4166 55.2626 53.4166 57.1723 54.5938 58.3495Z" fill="#0A3B70"/>
<path fill-rule="evenodd" clip-rule="evenodd" d="M54.5937 55.5939C54.2078 55.5939 53.822 55.4461 53.5281 55.1522L46.6158 48.24C46.0265 47.6507 46.0265 46.6981 46.6158 46.1087C47.2052 45.5194 48.1577 45.5194 48.7471 46.1087L55.6593 53.021C56.2486 53.6103 56.2486 54.5629 55.6593 55.1522C55.3654 55.4461 54.9795 55.5939 54.5937 55.5939Z" fill="#0A3B70"/>
<mask id="mask0_662_7141" style="mask-type:alpha" maskUnits="userSpaceOnUse" x="11" y="59" width="7" height="7">
<path d="M11.5078 59.2322H17.5368V65.2609H11.5078V59.2322Z" fill="white"/>
</mask>
<g mask="url(#mask0_662_7141)">
<path fill-rule="evenodd" clip-rule="evenodd" d="M17.5368 62.2467C17.5368 63.9107 16.1863 65.2612 14.5223 65.2612C12.8583 65.2612 11.5078 63.9107 11.5078 62.2467C11.5078 60.5827 12.8583 59.2322 14.5223 59.2322C16.1863 59.2322 17.5368 60.5827 17.5368 62.2467Z" fill="#0A3B70"/>
</g>
<path fill-rule="evenodd" clip-rule="evenodd" d="M16.6541 61.6228C16.2683 61.6228 15.8824 61.4751 15.5885 61.1812C14.9992 60.5919 14.9992 59.6393 15.5885 59.05L28.5297 46.1087C29.119 45.5194 30.0716 45.5194 30.6609 46.1087C31.2503 46.6981 31.2503 47.6507 30.6609 48.24L17.7197 61.1812C17.4258 61.4751 17.04 61.6228 16.6541 61.6228Z" fill="#0A3B70"/>
<mask id="mask1_662_7141" style="mask-type:alpha" maskUnits="userSpaceOnUse" x="10" y="11" width="58" height="55">
<path d="M10 65.2609H67.2754V11H10V65.2609Z" fill="white"/>
</mask>
<g mask="url(#mask1_662_7141)">
<path fill-rule="evenodd" clip-rule="evenodd" d="M13.0145 45.6665H64.2609V30.5941H13.0145V45.6665ZM65.7681 48.681H11.5072C10.6737 48.681 10 48.0073 10 47.1738V29.0868C10 28.2533 10.6737 27.5796 11.5072 27.5796H65.7681C66.6016 27.5796 67.2754 28.2533 67.2754 29.0868V47.1738C67.2754 48.0073 66.6016 48.681 65.7681 48.681Z" fill="#0A3B70"/>
<path fill-rule="evenodd" clip-rule="evenodd" d="M35.6235 42.6524H17.5365C16.703 42.6524 16.0293 41.9787 16.0293 41.1452C16.0293 40.3117 16.703 39.6379 17.5365 39.6379H35.6235C36.457 39.6379 37.1307 40.3117 37.1307 41.1452C37.1307 41.9787 36.457 42.6524 35.6235 42.6524Z" fill="#0A3B70"/>
<path fill-rule="evenodd" clip-rule="evenodd" d="M44.667 36.6234H17.5365C16.703 36.6234 16.0293 35.9496 16.0293 35.1161C16.0293 34.2826 16.703 33.6089 17.5365 33.6089H44.667C45.5005 33.6089 46.1742 34.2826 46.1742 35.1161C46.1742 35.9496 45.5005 36.6234 44.667 36.6234Z" fill="#0A3B70"/>
</g>
</g>
<defs>
<clipPath id="clip0_662_7141">
<rect width="76" height="76" fill="white"/>
</clipPath>
</defs>
</svg>

<?xml version="1.0" encoding="utf-8"?>
<!-- Generator: Adobe Illustrator 26.0.1, SVG Export Plug-In . SVG Version: 6.00 Build 0)  -->
<svg version="1.1" id="Layer_1" xmlns="http://www.w3.org/2000/svg" xmlns:xlink="http://www.w3.org/1999/xlink" x="0px" y="0px"
	 viewBox="0 0 76 76" style="enable-background:new 0 0 76 76;" xml:space="preserve">
<style type="text/css">
	.st0{fill-rule:evenodd;clip-rule:evenodd;fill:#0A3B70;}
	.st1{fill:#A8EFCF;fill-opacity:0.5;}
	.st2{fill:none;stroke:#0A3B70;stroke-width:3;stroke-linecap:round;stroke-miterlimit:10;}
</style>
<path class="st0" d="M13,45.7h51.2V30.6H13V45.7z M65.8,48.7H11.5c-0.8,0-1.5-0.7-1.5-1.5V29.1c0-0.8,0.7-1.5,1.5-1.5h54.3
	c0.8,0,1.5,0.7,1.5,1.5v18.1C67.3,48,66.6,48.7,65.8,48.7z"/>
<path class="st0" d="M35.6,42.7H17.5c-0.8,0-1.5-0.7-1.5-1.5s0.7-1.5,1.5-1.5h18.1c0.8,0,1.5,0.7,1.5,1.5S36.5,42.7,35.6,42.7z"/>
<path class="st0" d="M44.7,36.6H17.5c-0.8,0-1.5-0.7-1.5-1.5s0.7-1.5,1.5-1.5h27.1c0.8,0,1.5,0.7,1.5,1.5S45.5,36.6,44.7,36.6z"/>
<path class="st1" d="M45.8,0.2l30.3,0L60.9,26.4L45.8,0.2z"/>
<line class="st2" x1="48.2" y1="28.6" x2="61.7" y2="15.1"/>
<line class="st2" x1="15.7" y1="61.1" x2="29.2" y2="47.6"/>
<line class="st2" x1="21.6" y1="21.1" x2="29.2" y2="28.6"/>
<line class="st2" x1="48.2" y1="47.7" x2="55.7" y2="55.2"/>
<circle class="st0" cx="20.6" cy="20" r="2.9"/>
<circle class="st0" cx="63.5" cy="13.3" r="2.9"/>
<circle class="st0" cx="63.5" cy="13.3" r="2.9"/>
<circle class="st0" cx="13.8" cy="63" r="2.9"/>
<circle class="st0" cx="57.1" cy="56.2" r="2.9"/>
</svg>
